icons/1_Primary/Wasabi.svg

<svg width="1024" height="1024" viewBox="0 0 1024 1024" fill="none" xmlns="http://www.w3.org/2000/svg">
<g clip-path="url(#clip0_2_3885)">
<path d="M512 1024C794.77 1024 1024 794.77 1024 512C1024 229.23 794.77 0 512 0C229.23 0 0 229.23 0 512C0 794.77 229.23 1024 512 1024Z" fill="#98DC9A"/>
<path d="M693 331C593 231 431 231 331 331C231 431 231 593 331 693C431 793 593 793 693 693C793 593 793 431 693 331ZM720.66 488.78L610.43 388.78L497.65 495.25L438.45 550.95V467.95L528.23 382.63L595.29 319.27C629.245 334.005 658.716 357.432 680.73 387.188C702.744 416.945 716.524 451.98 720.68 488.76L720.66 488.78ZM718.66 549.16C714.74 571.156 707.312 592.38 696.66 612.02L633.86 554.74V471.74L718.66 549.16ZM544.11 304.4L496.67 349.23L438.29 404.6V315.36C472.064 302.692 508.529 298.925 544.18 304.42L544.11 304.4ZM392.37 552.4L305.37 474.29C309.453 451.889 317.175 430.307 328.23 410.4L392.39 468L392.37 552.4ZM392.37 339.5V406.18L355 372.71C366.093 360.21 378.635 349.075 392.36 339.54L392.37 339.5ZM303.12 534L415.88 635.17L587.76 473.4V555L429.2 705C394.908 690.24 365.159 666.625 343.005 636.575C320.851 606.525 307.088 571.123 303.13 534H303.12ZM480.48 719.68L587.8 618.21V707.87C563.63 717.245 537.925 722.037 512 722C501.43 722.007 490.874 721.225 480.42 719.66L480.48 719.68ZM633.76 683.08V616.75L670.36 649.89C659.528 662.34 647.282 673.485 633.87 683.1L633.76 683.08Z" fill="white"/>
</g>
<defs>
<clipPath id="clip0_2_3885">
<rect width="1024" height="1024" fill="white"/>
</clipPath>
</defs>
</svg>

<svg xmlns="http://www.w3.org/2000/svg" width="1024" height="1024" fill="none">
   <g clip-path="url(#a)">
      <path fill="#98DC9A" d="M512 1024c282.77 0 512-229.23 512-512S794.77 0 512 0 0 229.23 0 512s229.23 512 512 512Z"/>
      <path fill="#fff" d="M693 331c-100-100-262-100-362 0s-100 262 0 362 262 100 362 0 100-262 0-362Zm27.66 157.78-110.23-100-112.78 106.47-59.2 55.7v-83l89.78-85.32 67.06-63.36a210.537 210.537 0 0 1 125.39 169.49l-.02.02Zm-2 60.38a208.626 208.626 0 0 1-22 62.86l-62.8-57.28v-83l84.8 77.42ZM544.11 304.4l-47.44 44.83-58.38 55.37v-89.24a210.297 210.297 0 0 1 105.89-10.94l-.07-.02Zm-151.74 248-87-78.11a208.669 208.669 0 0 1 22.86-63.89l64.16 57.6-.02 84.4Zm0-212.9v66.68L355 372.71a210.598 210.598 0 0 1 37.36-33.17l.01-.04ZM303.12 534l112.76 101.17L587.76 473.4V555L429.2 705a210.46 210.46 0 0 1-126.07-171h-.01Zm177.36 185.68L587.8 618.21v89.66A208.785 208.785 0 0 1 512 722a212.35 212.35 0 0 1-31.58-2.34l.06.02Zm153.28-36.6v-66.33l36.6 33.14a212.414 212.414 0 0 1-36.49 33.21l-.11-.02Z"/>
   </g>
   <defs>
      <clipPath id="a">
         <path fill="#fff" d="M0 0h1024v1024H0z"/>
      </clipPath>
   </defs>
</svg>
